X: 20477
T: John Kelly's
R: slide
M: 12/8
K: Dmajor
|:f2A A2A BAB def|e2d B2A B2g gfe|
f2A A2A BAB def|1 e2d BAB d3 d2e:|2 e2d BAB d3 def||
|:g2g gfe f2f fed|efe edB d2B A2f|
g2g gfe f2f fed|1 efe efa b3 a2f:|2 efe efa b3 a3||

